X:1
T:Title
%%score { 1 | ( 2 3 ) }
L:1/8
M:4/4
K:Ab
V:1 treble nm="Grand Piano"
V:2 bass 
V:3 bass 
V:1
 z4 z2[Q:1/4=100] [CE][CA] | [Ec]2 [Ec]>[Ec] [Ec]2 [Ed][Ec] | .[FB]2 [A,FA]>[A,DF] [A,CE]2 EE | %3
 A2 A>A [=Dc]2 [DB][FA] | B6 EA | [Ec]2 [Ec]>[Ec] [Ec]2 [Ed][Ec] | %6
 .[FB]2 [A,FA]>[A,DF] [A,CE]2 [A,EA]B | c2 A>A [FB]2 [EA][DG] |[M:3/4] [CA]6 |[M:1/4] [CA]>[_GA] | %10
[M:4/4] [FA]2 [Fd]>[Fd] [Fd]2 [FA][=EB] | [Ec]2 [Ec]>[Ec] [Ec]2 [Ec]>[Ec] | %12
 [EB]2 [EB]>[EB] [A=d]2 [Ac]>[Ad] | [Ge]6 cd | e2 [Ec]>[EB] [EA]2 [EA][EG] | %15
 [DF][FA] [Fd]>F E2 [EA]B |[M:9/8] c e2- e[EA]c c2 B |[M:3/4] [CA]6 |] %18
V:2
 z4 z2 [A,,A,][A,,A,] | [A,,A,]2 [A,,A,]>[A,,A,] [A,,A,]2 [B,,G,][C,A,] | %2
 z A D,>D, A,,2 [A,C][A,C] | [F,A,C]2 [F,A,C]>[F,A,C] [B,,A,]2 [B,,A,][B,,F,] | %4
 [E,G,E]6 [A,C][A,C] | [A,,A,]2 [A,,A,]>[A,,A,] [A,,A,]2 [B,,G,][C,A,] | z A D,>D, A,,2 C,[E,G,E] | %7
 [A,E]2 [A,CE]>[A,CE] [D,D]2 [E,C][E,B,] |[M:3/4] [A,,A,]6 |[M:1/4] [A,,A,]>[A,,A,] | %10
[M:4/4] [D,A,]2 [D,A,]>[D,A,] [D,A,]2 [D,A,][D,G,] | %11
 [A,,A,]2 [A,,A,]>[A,,A,] [A,,A,]2 [A,,A,]>[A,,A,] | %12
 [B,,G,]2 [B,,G,]>[B,,G,] [B,,B,]2 [B,,B,]>[B,,B,] | [E,B,]6[K:treble] [A,E][A,B,E] | %14
 [A,CA]2[K:bass] [A,,A,]>[B,,G,] [C,A,]2 [C,A,][C,A,] | %15
 [D,A,]2 [D,A,]>[F,A,D] [A,C]2 [C,A,][E,G,E] | %16
[M:9/8][K:treble] [A,E] [A,CA]2- [A,CA][K:bass][C,A,][E,A,E] [E,A,E]2 [E,G,D] |[M:3/4] [A,,A,]6 |] %18
V:3
 x8 | x8 | [D,A,]2 z2 z4 | x8 | x8 | x8 | [D,A,]2 z2 z4 | x8 |[M:3/4] x6 |[M:1/4] x2 |[M:4/4] x8 | %11
 x8 | x8 | x6[K:treble] x2 | x2[K:bass] x6 | x8 |[M:9/8][K:treble] x4[K:bass] x5 |[M:3/4] x6 |] %18

